assets/logo.svg

<svg height="257" viewBox="0 0 257 257" width="257" xmlns="http://www.w3.org/2000/svg" xmlns:xlink="http://www.w3.org/1999/xlink"><defs><circle id="a" cx="128.5" cy="128.5" r="125.5"/><mask id="b" fill="#fff"><use fill="none" xlink:href="#a"/></mask></defs><g fill="none" fill-rule="evenodd"><use fill="#4a90e2" xlink:href="#a"/><g mask="url(#b)"><g transform="translate(52 51)"><path d="m72.1314807 60.2293552c-6.4113257 10.7931775-12.5538702 21.2454044-18.8242352 31.6186744-1.6102976 2.663003-2.4070843 4.8319268-1.1205186 8.2175054 3.5514945 9.351615-1.4585856 18.452003-10.8754815 20.922399-8.8805283 2.330427-17.5328913-3.514781-19.2949009-13.036273-1.5613196-8.4280577 4.9694643-16.6898271 14.2477887-18.0069727.7776734-.1112576 1.5708763-.1244171 2.8777499-.2225151 4.546582-7.634899 9.2042602-15.4552272 14.1139954-23.7014444-8.8769446-8.8395908-14.1605842-19.1733823-12.9910876-31.9775696.8266512-9.051339 4.380535-16.8728635 10.8766761-23.2839296 12.4415795-12.27661127 31.422305-14.26489113 46.0714735-4.84149735 14.0697955 9.05133905 20.5133755 26.68266785 15.0206835 41.77301815-4.141618-1.1245385-8.311907-2.2586476-12.8967153-3.5040143 1.7249773-8.3897753.4491631-15.9241836-5.2012134-22.3783171-3.7330711-4.2612833-8.523348-6.4948083-13.9706455-7.3178748-10.919681-1.6521146-21.6410613 5.3738587-24.8222353 16.1072203-3.6112237 12.1821021 1.8539925 22.133072 16.7886662 29.6315907z" fill="#fff"/><path d="m90.3182197 47.6666868c4.5235665 7.9880492 9.1165239 16.0970569 13.6688043 24.1318128 23.009053-7.125771 40.356769 5.6239699 46.580412 19.2743125 7.516945 16.4886749 2.378431 36.0180779-12.385073 46.1905649-15.153529 10.443147-34.317372 8.65871-47.7433075-4.755703 3.4216875-2.867075 6.8601244-5.747324 10.5342515-8.82398 13.260833 8.597632 24.858678 8.19284 33.469128-1.988031 7.342271-8.685057 7.18315-21.634799-.372079-30.1378195-8.719321-9.812007-20.398521-10.1114092-34.515973-.6922177-5.8563496-10.4000329-11.8143928-20.7174308-17.4853014-31.192913-1.9118379-3.5305501-4.0234737-5.5784607-8.3328856-6.3257685-7.1975076-1.2491057-11.8443027-7.4359516-12.1230626-14.3677101-.2739742-6.8551115 3.760267-13.0515382 10.0664609-15.4659171 6.2463742-2.3916244 13.5766815-.4610793 17.778418 4.8551051 3.4336514 4.3437263 4.5247629 9.2323646 2.7182076 14.5892677-.5024855 1.4934179-1.153324 2.9389315-1.8580002 4.7089969z" fill="#4b4b4b"/><path d="m101.69084 112.366238h-27.7535618c-2.660036 10.867492-8.4056658 19.641739-18.3061784 25.221345-7.6960032 4.336519-15.9913836 5.80703-24.8202097 4.391291-16.2551096-2.604055-29.54689835-17.138894-30.71688264-33.506215-1.3246236-18.540344 11.50564464-35.0207819 28.60707484-38.722659 1.1807731 4.2591234 2.3735337 8.5587304 3.5543068 12.8071375-15.6904963 7.9514749-21.1208537 17.9699995-16.7298163 30.4973235 3.8659829 11.024664 14.8465732 17.067452 26.7693844 14.730113 12.1757484-2.386157 18.3145696-12.43683 17.5653481-28.5672034 11.5428061 0 23.0952022-.1190697 34.639207.0583442 4.5073165.0702511 7.9873007-.3941207 11.3833717-4.3412815 5.590991-6.4952524 15.881098-5.9094294 21.902442.2250418 6.153206 6.2690199 5.858312 16.3566049-.653322 22.3612909-6.282671 5.793932-16.208358 5.48435-22.085851-.758474-1.208344-1.287144-2.160155-2.814808-3.355313-4.396054z" fill="#4a4a4a"/></g></g></g></svg>

<?xml version="1.0" encoding="UTF-8"?>
<svg width="257px" height="257px" viewBox="0 0 257 257" version="1.1" xmlns="http://www.w3.org/2000/svg" xmlns:xlink="http://www.w3.org/1999/xlink">
    <!-- Generator: Sketch 50.2 (55047) - http://www.bohemiancoding.com/sketch -->
    <title>incoming-webhooks/logo</title>
    <desc>Created with Sketch.</desc>
    <defs>
        <circle id="path-1" cx="128.5" cy="128.5" r="125.5"></circle>
    </defs>
    <g id="incoming-webhooks/logo" stroke="none" stroke-width="1" fill="none" fill-rule="evenodd">
        <mask id="mask-2" fill="white">
            <use xlink:href="#path-1"></use>
        </mask>
        <use id="Mask" fill="#4A90E2" xlink:href="#path-1"></use>
        <g id="Group" mask="url(#mask-2)">
            <g transform="translate(52.000000, 51.000000)" id="Shape">
                <path d="M72.1314807,60.2293552 C65.720155,71.0225327 59.5776105,81.4747596 53.3072455,91.8480296 C51.6969479,94.5110326 50.9001612,96.6799564 52.1867269,100.065535 C55.7382214,109.41715 50.7281413,118.517538 41.3112454,120.987934 C32.4307171,123.318361 23.7783541,117.473153 22.0163445,107.951661 C20.4550249,99.5236033 26.9858088,91.2618339 36.2641332,89.9446883 C37.0418066,89.8334307 37.8350095,89.8202712 39.1418831,89.7221732 C43.6884651,82.0872742 48.3461433,74.266946 53.2558785,66.0207288 C44.3789339,57.181138 39.0952943,46.8473465 40.2647909,34.0431592 C41.0914421,24.9918202 44.6453259,17.1702957 51.141467,10.7592296 C63.5830465,-1.51738167 82.563772,-3.50566153 97.2129405,5.91773225 C111.282736,14.9690713 117.726316,32.6004001 112.233624,47.6907504 C108.092006,46.5662119 103.921717,45.4321028 99.3369087,44.1867361 C101.061886,35.7969608 99.7860718,28.2625525 94.1356953,21.808419 C90.4026242,17.5471357 85.6123473,15.3136107 80.1650498,14.4905442 C69.2453688,12.8384296 58.5239885,19.8644029 55.3428145,30.5977645 C51.7315908,42.7798666 57.196807,52.7308365 72.1314807,60.2293552 Z" fill="#FFFFFF"></path>
                <path d="M90.3182197,47.6666868 C94.8417862,55.654736 99.4347436,63.7637437 103.987024,71.7984996 C126.996077,64.6727286 144.343793,77.4224695 150.567436,91.0728121 C158.084381,107.561487 152.945867,127.09089 138.182363,137.263377 C123.028834,147.706524 103.864991,145.922087 90.4390555,132.507674 C93.860743,129.640599 97.2991799,126.76035 100.973307,123.683694 C114.23414,132.281326 125.831985,131.876534 134.442435,121.695663 C141.784706,113.010606 141.625585,100.060864 134.070356,91.5578435 C125.351035,81.7458365 113.671835,81.4464343 99.554383,90.8656258 C93.6980334,80.4655929 87.7399902,70.148195 82.0690816,59.6727128 C80.1572437,56.1421627 78.0456079,54.0942521 73.736196,53.3469443 C66.5386884,52.0978386 61.8918933,45.9109927 61.6131334,38.9792342 C61.3391592,32.1241227 65.3734004,25.927696 71.6795943,23.5133171 C77.9259685,21.1216927 85.2562758,23.0522378 89.4580123,28.3684222 C92.8916637,32.7121485 93.9827752,37.6007868 92.1762199,42.9576899 C91.6737344,44.4511078 91.0228959,45.8966214 90.3182197,47.6666868 Z" fill="#4B4B4B" style="mix-blend-mode: multiply;"></path>
                <path d="M101.69084,112.366238 L73.9372782,112.366238 C71.2772422,123.23373 65.5316124,132.007977 55.6310998,137.587583 C47.9350966,141.924102 39.6397162,143.394613 30.8108901,141.978874 C14.5557805,139.374819 1.26399175,124.83998 0.0940074647,108.472659 C-1.23061614,89.932315 11.5996521,73.4518771 28.7010823,69.75 C29.8818554,74.0091234 31.074616,78.3087304 32.2553891,82.5571375 C16.5648928,90.5086124 11.1345354,100.527137 15.5255728,113.054461 C19.3915557,124.079125 30.372146,130.121913 42.2949572,127.784574 C54.4707056,125.398417 60.6095268,115.347744 59.8603053,99.2173706 C71.4031114,99.2173706 82.9555075,99.0983009 94.4995123,99.2757148 C99.0068288,99.3459659 102.486813,98.8815941 105.882884,94.9344333 C111.473875,88.4391809 121.763982,89.0250039 127.785326,95.1594751 C133.938532,101.428495 133.643638,111.51608 127.132004,117.520766 C120.849333,123.314698 110.923646,123.005116 105.046153,116.762292 C103.837809,115.475148 102.885998,113.947484 101.69084,112.366238 Z" fill="#4A4A4A" style="mix-blend-mode: multiply;"></path>
            </g>
        </g>
    </g>
</svg>
